X: 37
T: Barley Cake
%R: reel
B: "The Compleat Country Dancing-Master" printed by John Walsh, London ca. 1740
S: 6: CCDM2 http://imslp.org/wiki/The_Compleat_Country_Dancing-Master_(Various) V.2 (37)
Z: 2013 John Chambers <jc:trillian.mit.edu>
M: C
L: 1/8
K: G
% - - - - - - - - - - - - - - - - - - - - - - - - -
|:\
G2A2 Bd2g | dBAG AFED | G2A2 Bd2g | dBAG TA2G2 :|
|:\
(g/f/e/f/) ge (a/g/f/g/) af | ge fd Te2d2 | g/f/e/f/ ge a/g/f/g/ af | gdcB A2D2 |
G2A2 Bd2g | dBAG AFED | G2A2 Bd2g | dBAG TA2G2 :|
% - - - - - - - - Dance description - - - - - - - -
%%begintext align
%% First Man and 2d Wo. foot it and turn Hands The 1st
%% Wo. and 2d Man do the same. the 1st Cu. lead thro'
%% the 2d Cu. and go round the 3d Cu. then lead up the
%% Middle and foot it at the top then cast off and Right
%% hand and Left Quite round then foot it and turn
%% hands.
%%endtext
%%sep 1 8 500

%%sep 1 1 500
%%sep 1 1 500
